Newaita-dark/actions/22/plugins.svg

<svg height="22" viewBox="0 0 22 22" width="22" xmlns="http://www.w3.org/2000/svg"><path d="m5.003906 3.355469c-.503906 0-.910156.40625-.910156.910156v1.820313h-.457031c-1.007813 0-1.816407.808593-1.816407 1.816406v9.097656c0 1.007812.808594 1.820312 1.816407 1.820312h14.554687c1.007813 0 1.820313-.8125 1.820313-1.820312v-9.097656c0-1.007813-.8125-1.816406-1.820313-1.816406h-.453125v-1.820313c0-.503906-.40625-.910156-.910156-.910156h-3.640625c-.503906 0-.90625.40625-.90625.910156v1.820313h-2.730469v-1.820313c0-.503906-.40625-.910156-.910156-.910156zm1.363282 1.820312h.910156c.25 0 .453125.203125.453125.453125v.457032h-1.816407v-.457032c0-.25.199219-.453125.453126-.453125zm8.1875 0h.910156c.25 0 .453125.203125.453125.453125v.457032h-1.820313v-.457032c0-.25.203125-.453125.457032-.453125zm-10.007813 2.726563h12.734375c.503906 0 .910156.40625.910156.910156v7.277344c0 .503906-.40625.910156-.910156.910156h-12.734375c-.503906 0-.910156-.40625-.910156-.910156v-7.277344c0-.503906.40625-.910156.910156-.910156zm0 0" fill="#e0e0e0"/></svg>

<?xml version="1.0" encoding="UTF-8"?>
<svg xmlns="http://www.w3.org/2000/svg" xmlns:xlink="http://www.w3.org/1999/xlink" width="22px" height="22px" viewBox="0 0 22 22" version="1.1">
<g id="surface1">
<path style=" stroke:none;fill-rule:nonzero;fill:rgb(87.843138%,87.843138%,87.843138%);fill-opacity:1;" d="M 5.003906 3.355469 C 4.5 3.355469 4.09375 3.761719 4.09375 4.265625 L 4.09375 6.085938 L 3.636719 6.085938 C 2.628906 6.085938 1.820312 6.894531 1.820312 7.902344 L 1.820312 17 C 1.820312 18.007812 2.628906 18.820312 3.636719 18.820312 L 18.191406 18.820312 C 19.199219 18.820312 20.011719 18.007812 20.011719 17 L 20.011719 7.902344 C 20.011719 6.894531 19.199219 6.085938 18.191406 6.085938 L 17.738281 6.085938 L 17.738281 4.265625 C 17.738281 3.761719 17.332031 3.355469 16.828125 3.355469 L 13.1875 3.355469 C 12.683594 3.355469 12.28125 3.761719 12.28125 4.265625 L 12.28125 6.085938 L 9.550781 6.085938 L 9.550781 4.265625 C 9.550781 3.761719 9.144531 3.355469 8.640625 3.355469 Z M 6.367188 5.175781 L 7.277344 5.175781 C 7.527344 5.175781 7.730469 5.378906 7.730469 5.628906 L 7.730469 6.085938 L 5.914062 6.085938 L 5.914062 5.628906 C 5.914062 5.378906 6.113281 5.175781 6.367188 5.175781 Z M 14.554688 5.175781 L 15.464844 5.175781 C 15.714844 5.175781 15.917969 5.378906 15.917969 5.628906 L 15.917969 6.085938 L 14.097656 6.085938 L 14.097656 5.628906 C 14.097656 5.378906 14.300781 5.175781 14.554688 5.175781 Z M 4.546875 7.902344 L 17.28125 7.902344 C 17.785156 7.902344 18.191406 8.308594 18.191406 8.8125 L 18.191406 16.089844 C 18.191406 16.59375 17.785156 17 17.28125 17 L 4.546875 17 C 4.042969 17 3.636719 16.59375 3.636719 16.089844 L 3.636719 8.8125 C 3.636719 8.308594 4.042969 7.902344 4.546875 7.902344 Z M 4.546875 7.902344 "/>
</g>
</svg>
